packages/ui-solid/icons/bot_menu_28.svg

<svg width="28" height="28" viewBox="0 0 28 28" fill="none" xmlns="http://www.w3.org/2000/svg">
<path fill-rule="evenodd" clip-rule="evenodd" d="M13.957 3.1H14.043C15.8319 3.09999 17.2332 3.09999 18.356 3.19749C19.4992 3.29675 20.4387 3.50226 21.279 3.96424C22.4409 4.60297 23.397 5.55911 24.0358 6.72096C24.4977 7.56131 24.7032 8.50084 24.8025 9.64402C24.9 10.7668 24.9 12.1681 24.9 13.957V14.043C24.9 15.8319 24.9 17.2332 24.8025 18.356C24.7032 19.4992 24.4977 20.4387 24.0358 21.279C23.397 22.4409 22.4409 23.397 21.279 24.0358C20.4387 24.4977 19.4992 24.7032 18.356 24.8025C17.2332 24.9 15.8319 24.9 14.043 24.9H13.957C12.1681 24.9 10.7668 24.9 9.64402 24.8025C8.50084 24.7032 7.56131 24.4977 6.72097 24.0358C5.55911 23.397 4.60298 22.4409 3.96424 21.279C3.50226 20.4387 3.29676 19.4992 3.19749 18.356C3.09999 17.2332 3.09999 15.8319 3.1 14.043V13.957C3.09999 12.1681 3.09999 10.7668 3.19749 9.64402C3.29676 8.50084 3.50226 7.5613 3.96424 6.72096C4.60298 5.55911 5.55911 4.60297 6.72097 3.96424C7.56131 3.50226 8.50084 3.29675 9.64402 3.19749C10.7668 3.09999 12.1681 3.09999 13.957 3.1ZM9.79973 4.99074C8.77522 5.0797 8.11733 5.25066 7.58812 5.54159C6.72559 6.01577 6.01577 6.72558 5.54159 7.58812C5.25066 8.11733 5.0797 8.77522 4.99074 9.79973C4.90079 10.8356 4.9 12.1588 4.9 14C4.9 15.8411 4.90079 17.1644 4.99074 18.2003C5.0797 19.2248 5.25066 19.8827 5.54159 20.4119C6.01577 21.2744 6.72559 21.9842 7.58812 22.4584C8.11733 22.7493 8.77522 22.9203 9.79973 23.0093C10.8356 23.0992 12.1589 23.1 14 23.1C15.8412 23.1 17.1644 23.0992 18.2003 23.0093C19.2248 22.9203 19.8827 22.7493 20.4119 22.4584C21.2744 21.9842 21.9842 21.2744 22.4584 20.4119C22.7493 19.8827 22.9203 19.2248 23.0093 18.2003C23.0992 17.1644 23.1 15.8411 23.1 14C23.1 12.1588 23.0992 10.8356 23.0093 9.79973C22.9203 8.77522 22.7493 8.11733 22.4584 7.58812C21.9842 6.72559 21.2744 6.01577 20.4119 5.54159C19.8827 5.25066 19.2248 5.0797 18.2003 4.99074C17.1644 4.90079 15.8412 4.9 14 4.9C12.1589 4.9 10.8356 4.90079 9.79973 4.99074ZM10.2158 7.01304H10.2889C10.6948 7.01302 11.0577 7.01299 11.3582 7.04022C11.6799 7.06938 12.0172 7.13538 12.3399 7.32166C12.69 7.52384 12.9808 7.81464 13.183 8.16483C13.3693 8.48749 13.4353 8.82477 13.4645 9.14654C13.4917 9.44694 13.4917 9.80986 13.4916 10.2158V10.2889C13.4917 10.6948 13.4917 11.0577 13.4645 11.3581C13.4353 11.6799 13.3693 12.0172 13.183 12.3399C12.9808 12.69 12.69 12.9808 12.3399 13.183C12.0172 13.3693 11.6799 13.4353 11.3582 13.4645C11.0577 13.4917 10.6948 13.4917 10.2889 13.4916H10.2158C9.80986 13.4917 9.44695 13.4917 9.14654 13.4645C8.82477 13.4353 8.48749 13.3693 8.16483 13.183C7.81464 12.9808 7.52385 12.69 7.32167 12.3399C7.13538 12.0172 7.06939 11.6799 7.04022 11.3581C7.013 11.0577 7.01302 10.6948 7.01304 10.2889V10.2158C7.01302 9.80985 7.013 9.44694 7.04022 9.14654C7.06939 8.82477 7.13538 8.48749 7.32167 8.16483C7.52385 7.81464 7.81465 7.52384 8.16483 7.32166C8.48749 7.13538 8.82477 7.06938 9.14654 7.04022C9.44694 7.01299 9.80986 7.01302 10.2158 7.01304ZM9.06483 8.88051C9.06474 8.88056 9.06489 8.88048 9.06483 8.88051C8.98828 8.92471 8.92471 8.98828 8.88051 9.06483C8.88048 9.06489 8.88056 9.06474 8.88051 9.06483C8.8778 9.06942 8.85038 9.11591 8.83288 9.30901C8.81391 9.51831 8.81304 9.79851 8.81304 10.2523C8.81304 10.7062 8.81391 10.9864 8.83288 11.1957C8.85038 11.3888 8.87767 11.435 8.88038 11.4396C8.92458 11.5162 8.98828 11.58 9.06483 11.6242C9.06942 11.6269 9.11591 11.6543 9.30901 11.6718C9.51831 11.6908 9.79851 11.6916 10.2523 11.6916C10.7062 11.6916 10.9864 11.6908 11.1957 11.6718C11.3888 11.6543 11.435 11.627 11.4396 11.6243C11.5162 11.5801 11.58 11.5164 11.6242 11.4399C11.6269 11.4353 11.6543 11.3888 11.6718 11.1957C11.6908 10.9864 11.6916 10.7062 11.6916 10.2523C11.6916 9.79851 11.6908 9.51831 11.6718 9.30901C11.6543 9.1159 11.627 9.06965 11.6243 9.06506C11.5801 8.9885 11.5164 8.92471 11.4399 8.88051C11.4353 8.8778 11.3888 8.85037 11.1957 8.83287C10.9864 8.8139 10.7062 8.81304 10.2523 8.81304C9.79851 8.81304 9.51831 8.8139 9.30901 8.83287C9.11591 8.85037 9.06943 8.8778 9.06483 8.88051ZM17.7111 7.01304H17.7842C18.1901 7.01302 18.5531 7.01299 18.8535 7.04022C19.1752 7.06938 19.5125 7.13538 19.8352 7.32166C20.1854 7.52385 20.4762 7.81464 20.6783 8.16483C20.8646 8.48749 20.9306 8.82477 20.9598 9.14654C20.987 9.44694 20.987 9.80986 20.987 10.2158V10.2889C20.987 10.6948 20.987 11.0577 20.9598 11.3581C20.9306 11.6799 20.8646 12.0172 20.6783 12.3399C20.4762 12.69 20.1854 12.9808 19.8352 13.183C19.5125 13.3693 19.1752 13.4353 18.8535 13.4645C18.5531 13.4917 18.1901 13.4917 17.7842 13.4916H17.7111C17.3052 13.4917 16.9423 13.4917 16.6419 13.4645C16.3201 13.4353 15.9828 13.3693 15.6601 13.183C15.31 12.9808 15.0192 12.69 14.817 12.3399C14.6307 12.0172 14.5647 11.6799 14.5355 11.3581C14.5083 11.0577 14.5083 10.6948 14.5084 10.2889V10.2158C14.5083 9.80986 14.5083 9.44694 14.5355 9.14654C14.5647 8.82477 14.6307 8.48749 14.817 8.16483C15.0192 7.81464 15.31 7.52384 15.6601 7.32166C15.9828 7.13538 16.3201 7.06938 16.6419 7.04022C16.9423 7.01299 17.3052 7.01302 17.7111 7.01304ZM16.5601 8.88051C16.4836 8.92471 16.42 8.98828 16.3758 9.06483C16.3731 9.06942 16.3457 9.1159 16.3282 9.30901C16.3092 9.51831 16.3084 9.79851 16.3084 10.2523C16.3084 10.7062 16.3092 10.9864 16.3282 11.1957C16.3457 11.3888 16.373 11.435 16.3757 11.4396C16.4199 11.5162 16.4836 11.58 16.5601 11.6242C16.5647 11.6269 16.6112 11.6543 16.8043 11.6718C17.0136 11.6908 17.2938 11.6916 17.7477 11.6916C18.2015 11.6916 18.4817 11.6908 18.691 11.6718C18.8841 11.6543 18.9304 11.627 18.9349 11.6243C19.0115 11.5801 19.0753 11.5164 19.1195 11.4399C19.1222 11.4353 19.1496 11.3888 19.1671 11.1957C19.1861 10.9864 19.187 10.7062 19.187 10.2523C19.187 9.79851 19.1861 9.51831 19.1671 9.30901C19.1496 9.11591 19.1223 9.06965 19.1196 9.06506C19.0754 8.9885 19.0117 8.92471 18.9352 8.88051C18.9306 8.8778 18.8841 8.85037 18.691 8.83287C18.4817 8.8139 18.2015 8.81304 17.7477 8.81304C17.2938 8.81304 17.0136 8.8139 16.8043 8.83287C16.6112 8.85037 16.5647 8.8778 16.5601 8.88051ZM10.2158 14.5084H10.2889C10.6948 14.5083 11.0577 14.5083 11.3582 14.5355C11.6799 14.5647 12.0172 14.6307 12.3399 14.817C12.69 15.0192 12.9808 15.31 13.183 15.6601C13.3693 15.9828 13.4353 16.3201 13.4645 16.6418C13.4917 16.9423 13.4917 17.3052 13.4916 17.7111V17.7842C13.4917 18.1901 13.4917 18.5531 13.4645 18.8535C13.4353 19.1752 13.3693 19.5125 13.183 19.8352C12.9808 20.1854 12.69 20.4762 12.3399 20.6783C12.0172 20.8646 11.6799 20.9306 11.3582 20.9598C11.0577 20.987 10.6948 20.987 10.2889 20.987H10.2158C9.80986 20.987 9.44695 20.987 9.14654 20.9598C8.82477 20.9306 8.48749 20.8646 8.16483 20.6783C7.81465 20.4762 7.52385 20.1854 7.32167 19.8352C7.13538 19.5125 7.06939 19.1752 7.04022 18.8535C7.013 18.5531 7.01302 18.1901 7.01304 17.7842V17.7111C7.01302 17.3052 7.013 16.9423 7.04022 16.6418C7.06939 16.3201 7.13538 15.9828 7.32167 15.6601C7.52385 15.31 7.81464 15.0192 8.16483 14.817C8.48749 14.6307 8.82477 14.5647 9.14654 14.5355C9.44695 14.5083 9.80986 14.5083 10.2158 14.5084ZM9.06483 16.3758C8.98828 16.42 8.92471 16.4836 8.88051 16.5601C8.8778 16.5647 8.85038 16.6112 8.83288 16.8043C8.81391 17.0136 8.81304 17.2938 8.81304 17.7477C8.81304 18.2015 8.81391 18.4817 8.83288 18.691C8.85038 18.8841 8.87767 18.9303 8.88038 18.9349C8.92458 19.0115 8.98828 19.0753 9.06483 19.1195C9.06942 19.1222 9.11591 19.1496 9.30901 19.1671C9.51831 19.1861 9.79851 19.187 10.2523 19.187C10.7062 19.187 10.9864 19.1861 11.1957 19.1671C11.3888 19.1496 11.435 19.1223 11.4396 19.1196C11.5162 19.0754 11.58 19.0117 11.6242 18.9352C11.6269 18.9306 11.6543 18.8841 11.6718 18.691C11.6908 18.4817 11.6916 18.2015 11.6916 17.7477C11.6916 17.2938 11.6908 17.0136 11.6718 16.8043C11.6543 16.6112 11.627 16.565 11.6243 16.5604C11.5801 16.4838 11.5164 16.42 11.4399 16.3758C11.4353 16.3731 11.3888 16.3457 11.1957 16.3282C10.9864 16.3092 10.7062 16.3084 10.2523 16.3084C9.79851 16.3084 9.51831 16.3092 9.30901 16.3282C9.11591 16.3457 9.06942 16.3731 9.06483 16.3758ZM17.7111 14.5084H17.7842C18.1901 14.5083 18.5531 14.5083 18.8535 14.5355C19.1752 14.5647 19.5125 14.6307 19.8352 14.817C20.1854 15.0192 20.4762 15.31 20.6783 15.6601C20.8646 15.9828 20.9306 16.3201 20.9598 16.6418C20.987 16.9423 20.987 17.3052 20.987 17.7111V17.7842C20.987 18.1901 20.987 18.5531 20.9598 18.8535C20.9306 19.1752 20.8646 19.5125 20.6783 19.8352C20.4762 20.1854 20.1854 20.4762 19.8352 20.6783C19.5125 20.8646 19.1752 20.9306 18.8535 20.9598C18.5531 20.987 18.1901 20.987 17.7842 20.987H17.7111C17.3052 20.987 16.9423 20.987 16.6418 20.9598C16.3201 20.9306 15.9828 20.8646 15.6601 20.6783C15.31 20.4762 15.0192 20.1854 14.817 19.8352C14.6307 19.5125 14.5647 19.1752 14.5355 18.8535C14.5083 18.5531 14.5083 18.1901 14.5084 17.7842V17.7111C14.5083 17.3052 14.5083 16.9423 14.5355 16.6418C14.5647 16.3201 14.6307 15.9828 14.817 15.6601C15.0192 15.31 15.31 15.0192 15.6601 14.817C15.9828 14.6307 16.3201 14.5647 16.6419 14.5355C16.9423 14.5083 17.3052 14.5083 17.7111 14.5084ZM16.5601 16.3758C16.4836 16.42 16.42 16.4836 16.3758 16.5601C16.3731 16.5647 16.3457 16.6112 16.3282 16.8043C16.3092 17.0136 16.3084 17.2938 16.3084 17.7477C16.3084 18.2015 16.3092 18.4817 16.3282 18.691C16.3457 18.8841 16.373 18.9303 16.3757 18.9349C16.4199 19.0115 16.4836 19.0753 16.5601 19.1195C16.5647 19.1222 16.6112 19.1496 16.8043 19.1671C17.0136 19.1861 17.2938 19.187 17.7477 19.187C18.2015 19.187 18.4817 19.1861 18.691 19.1671C18.8841 19.1496 18.9304 19.1223 18.9349 19.1196C19.0115 19.0754 19.0753 19.0117 19.1195 18.9352C19.1222 18.9306 19.1496 18.8841 19.1671 18.691C19.1861 18.4817 19.187 18.2015 19.187 17.7477C19.187 17.2938 19.1861 17.0136 19.1671 16.8043C19.1496 16.6112 19.1223 16.565 19.1196 16.5604C19.0754 16.4838 19.0117 16.42 18.9352 16.3758C18.9306 16.3731 18.8841 16.3457 18.691 16.3282C18.4817 16.3092 18.2015 16.3084 17.7477 16.3084C17.2938 16.3084 17.0136 16.3092 16.8043 16.3282C16.6112 16.3457 16.5647 16.3731 16.5601 16.3758Z" fill="#007AFF"/>
</svg>

<svg xmlns="http://www.w3.org/2000/svg" width="28" height="28" fill="none"><path fill="currentColor" fill-rule="evenodd" d="M13.957 3.1h.086c1.789 0 3.19 0 4.313.097 1.143.1 2.083.305 2.923.767a7 7 0 0 1 2.757 2.757c.462.84.667 1.78.766 2.923.098 1.123.098 2.524.098 4.313v.086c0 1.789 0 3.19-.098 4.313-.099 1.143-.304 2.083-.766 2.923a7 7 0 0 1-2.757 2.757c-.84.462-1.78.667-2.923.766-1.123.098-2.524.098-4.313.098h-.086c-1.789 0-3.19 0-4.313-.098-1.143-.099-2.083-.304-2.923-.766a7 7 0 0 1-2.757-2.757c-.462-.84-.667-1.78-.767-2.923-.097-1.123-.097-2.524-.097-4.313v-.086c0-1.789 0-3.19.097-4.313.1-1.143.305-2.083.767-2.923a7 7 0 0 1 2.757-2.757c.84-.462 1.78-.667 2.923-.767 1.123-.097 2.524-.097 4.313-.097M9.8 4.99c-1.025.09-1.683.26-2.212.552a5.2 5.2 0 0 0-2.046 2.046c-.291.53-.462 1.187-.551 2.212C4.9 10.836 4.9 12.159 4.9 14s0 3.164.09 4.2c.09 1.025.26 1.683.552 2.212a5.2 5.2 0 0 0 2.046 2.046c.53.291 1.187.462 2.212.551 1.036.09 2.359.091 4.2.091s3.164 0 4.2-.09c1.025-.09 1.683-.26 2.212-.552a5.2 5.2 0 0 0 2.046-2.046c.291-.53.462-1.187.551-2.212.09-1.036.091-2.359.091-4.2s0-3.164-.09-4.2c-.09-1.025-.26-1.683-.552-2.212a5.2 5.2 0 0 0-2.046-2.046c-.53-.291-1.187-.462-2.212-.551C17.164 4.9 15.841 4.9 14 4.9s-3.164 0-4.2.09m.416 2.023h.073c.406 0 .769 0 1.07.027.32.03.658.095.98.282.351.202.642.493.844.843.186.322.252.66.281.982.028.3.028.663.028 1.069v.073c0 .406 0 .769-.028 1.07-.029.32-.095.658-.281.98a2.3 2.3 0 0 1-.843.844c-.323.186-.66.252-.982.281-.3.028-.663.028-1.07.028h-.072c-.406 0-.769 0-1.07-.028-.321-.029-.659-.095-.981-.281a2.3 2.3 0 0 1-.843-.843c-.187-.323-.253-.66-.282-.982-.027-.3-.027-.663-.027-1.07v-.072c0-.406 0-.77.027-1.07.03-.321.095-.659.282-.981.202-.35.493-.641.843-.843.322-.187.66-.253.982-.282.3-.027.663-.027 1.069-.027M9.065 8.881a.5.5 0 0 0-.184.184c-.003.004-.03.05-.048.244-.02.21-.02.49-.02.943 0 .454 0 .734.02.944.017.193.045.239.047.244q.069.116.185.184c.004.003.05.03.244.048.21.019.49.02.943.02.454 0 .734-.001.944-.02.193-.018.239-.045.244-.048a.5.5 0 0 0 .184-.184c.003-.005.03-.051.048-.244.019-.21.02-.49.02-.944s-.001-.734-.02-.943c-.018-.193-.045-.24-.048-.244a.5.5 0 0 0-.184-.184c-.005-.003-.051-.03-.244-.048-.21-.02-.49-.02-.944-.02s-.734 0-.943.02c-.193.017-.24.045-.244.048m8.646-1.868h.073c.406 0 .77 0 1.07.027.321.03.659.095.981.282.35.202.641.493.843.843.187.322.253.66.282.982.027.3.027.663.027 1.069v.073c0 .406 0 .769-.027 1.07-.03.32-.095.658-.282.98a2.3 2.3 0 0 1-.843.844c-.323.186-.66.252-.982.281-.3.028-.663.028-1.069.028h-.073c-.406 0-.769 0-1.07-.028-.32-.029-.658-.095-.98-.281a2.3 2.3 0 0 1-.844-.843c-.186-.323-.252-.66-.281-.982-.028-.3-.028-.663-.028-1.07v-.072c0-.406 0-.77.028-1.07.029-.321.095-.659.281-.981.202-.35.493-.641.843-.843.323-.187.66-.253.982-.282.3-.027.663-.027 1.07-.027m-1.15 1.868a.5.5 0 0 0-.185.184c-.003.004-.03.05-.048.244-.019.21-.02.49-.02.943 0 .454.001.734.02.944.018.193.045.239.048.244.044.076.108.14.184.184.005.003.051.03.244.048.21.019.49.02.944.02s.734-.001.943-.02c.193-.018.24-.045.244-.048a.5.5 0 0 0 .184-.184c.003-.005.03-.051.048-.244.02-.21.02-.49.02-.944s0-.734-.02-.943c-.017-.193-.045-.24-.047-.244a.5.5 0 0 0-.185-.184c-.004-.003-.05-.03-.244-.048-.21-.02-.49-.02-.943-.02-.454 0-.734 0-.944.02-.193.017-.24.045-.244.048m-6.345 5.627h.073c.406 0 .769 0 1.07.028.32.029.658.095.98.281.351.202.642.493.844.843.186.323.252.66.281.982.028.3.028.663.028 1.07v.072c0 .406 0 .77-.028 1.07-.029.321-.095.659-.281.981-.202.35-.493.641-.843.843-.323.187-.66.253-.982.282-.3.027-.663.027-1.07.027h-.072c-.406 0-.769 0-1.07-.027-.321-.03-.659-.095-.981-.282a2.3 2.3 0 0 1-.843-.843c-.187-.323-.253-.66-.282-.982-.027-.3-.027-.663-.027-1.069v-.073c0-.406 0-.769.027-1.07.03-.32.095-.658.282-.98.202-.351.493-.642.843-.844.322-.186.66-.252.982-.281.3-.028.663-.028 1.069-.028m-1.151 1.868a.5.5 0 0 0-.184.184c-.003.005-.03.051-.048.244-.02.21-.02.49-.02.944s0 .734.02.943c.017.193.045.24.047.244q.069.117.185.184c.004.003.05.03.244.048.21.02.49.02.943.02.454 0 .734 0 .944-.02.193-.017.239-.045.244-.047a.5.5 0 0 0 .184-.185c.003-.004.03-.05.048-.244.019-.21.02-.49.02-.943 0-.454-.001-.734-.02-.944-.018-.193-.045-.239-.048-.244a.5.5 0 0 0-.184-.184c-.005-.003-.051-.03-.244-.048-.21-.019-.49-.02-.944-.02s-.734.001-.943.02c-.193.018-.24.045-.244.048m8.646-1.868h.073c.406 0 .77 0 1.07.028.321.029.659.095.981.281.35.202.641.493.843.843.187.323.253.66.282.982.027.3.027.663.027 1.07v.072c0 .406 0 .77-.027 1.07-.03.321-.095.659-.282.981-.202.35-.493.641-.843.843-.323.187-.66.253-.982.282-.3.027-.663.027-1.069.027h-.073c-.406 0-.769 0-1.07-.027-.32-.03-.658-.095-.98-.282a2.3 2.3 0 0 1-.844-.843c-.186-.323-.252-.66-.281-.982-.028-.3-.028-.663-.028-1.069v-.073c0-.406 0-.769.028-1.07.029-.32.095-.658.281-.98.202-.351.493-.642.843-.844.323-.186.66-.252.982-.281.3-.028.663-.028 1.07-.028m-1.15 1.868a.5.5 0 0 0-.185.184c-.003.005-.03.051-.048.244-.019.21-.02.49-.02.944s.001.734.02.943c.018.193.045.24.048.244a.5.5 0 0 0 .184.184c.005.003.051.03.244.048.21.02.49.02.944.02s.734 0 .943-.02c.193-.017.24-.045.244-.047a.5.5 0 0 0 .184-.185c.003-.004.03-.05.048-.244.02-.21.02-.49.02-.943 0-.454 0-.734-.02-.944-.017-.193-.045-.239-.047-.244a.5.5 0 0 0-.185-.184c-.004-.003-.05-.03-.244-.048-.21-.019-.49-.02-.943-.02-.454 0-.734.001-.944.02-.193.018-.24.045-.244.048" clip-rule="evenodd"/></svg>
